X:1
T:Passepied de Plneuf (n1)
C:Sonneurs de vielle en Bretagne, anthologie des chants et musiques de Bretagne, fichier abc : Bernard Loffet
L:1/8
Q:430
M:2/2
K:C
 [g2C,,2]C,2 [e2C,,2][g2C,2] | [e2C,,2][d2C,2] [c2C,,2]C,2 | [c2F,,2][d2F,2] [e2F,,2][fF,]e | \
 [d2G,,2][c2G,2] [d2G,,2]G,2 | [g2C,,2]C,2 [e2C,,2][g2C,2] | [e2C,,2][d2C,2] [c2C,,2][G2C,2] | \
 [c2F,,2][d2F,2] [f2F,,2][e2F,2] | [d2G,,2]G,2 [c2C,,2]C,2 | [g2C,,2]C,2 [e2C,,2][g2C,2] | \
 [e2C,,2][d2C,2] [c2C,,2]C,2 | [c2F,,2][d2F,2] [e2F,,2][fF,]e | [d2G,,2][c2G,2] [d2G,,2]G,2 | \
 [g2C,,2]C,2 [e2C,,2][g2C,2] | [e2C,,2][d2C,2] [c2C,,2][B2C,2] | [c2F,,2][d2F,2] [f2F,,2][e2F,2] | \
 [d2G,,2]G,2 [c2C,,2][G2C,2] | [c2C,,2][d2C,2] [e2C,,2][f2G,2] | [g2C,,2]C,2 [g2C,,2][d2C,2] | \
 [c2C,,2][d2C,2] [e2C,,2][f2G,2] | [a2F,,2]F,2 [g2G,,2]G,2 | [c2C,,2][d2C,2] [e2C,,2][f2G,2] | \
 [g2F,,2][fF,]e [d2F,,2][e2F,2] | [f2G,,2][e2G,2] [g2G,,2][e2G,2] | [d2G,,2]G,2 [c2C,,2]C,2 | \
W:Created with TablEdit http://www.tabledit.com/ by Bernard Loffet
